src/images/avatar.svg

<svg width="12" height="12" fill="none" xmlns="http://www.w3.org/2000/svg"><path fill-rule="evenodd" clip-rule="evenodd" d="M7.42985 7.96781C8.79169 7.40572 9.7501 6.06478 9.7501 4.5c0-2.07107-1.67893-3.75-3.75-3.75-2.07107 0-3.75 1.67893-3.75 3.75 0 1.56473.95835 2.90563 2.32011 3.46775-1.39466.23218-2.67758.79819-3.76186 1.61283L2.1899 11.4194c1.06129-.7973 2.37884-1.2694 3.80996-1.2694s2.74866.4721 3.80995 1.2694l1.38159-1.83882c-1.0842-.81457-2.36702-1.38055-3.76155-1.61277z" fill="#fff"/></svg>

<svg width="12" height="12" viewBox="0 0 12 12" fill="none" xmlns="http://www.w3.org/2000/svg">
<path fill-rule="evenodd" clip-rule="evenodd" d="M7.42985 7.96781C8.79169 7.40572 9.7501 6.06478 9.7501 4.5C9.7501 2.42893 8.07117 0.75 6.0001 0.75C3.92903 0.75 2.2501 2.42893 2.2501 4.5C2.2501 6.06473 3.20845 7.40563 4.57021 7.96775C3.17555 8.19993 1.89263 8.76594 0.80835 9.58058L2.1899 11.4194C3.25119 10.6221 4.56874 10.15 5.99986 10.15C7.43098 10.15 8.74852 10.6221 9.80981 11.4194L11.1914 9.58058C10.1072 8.76601 8.82438 8.20003 7.42985 7.96781Z" fill="white"/>
</svg>
